X:1670
T:Du ska fa sockertoj
O:england
C:Trad 2, 46
M:2/4
L:1/16
K:G
G2Bd edBd|G2Bd e2d2|D2DF AcBA|G2GA B2G2|\
G2Bd edBd|G2Bd e2d2|D2DF AcBA|G2 (3GAB G4:|
|:Gg|e2cg e2ed|d2ed d4|D2DF AcBA|G2GA B2Gg|\
e2cg e2ed|d2ed d4|D2DF AcBA|G2 (3GAB G2:|


